_includes/icons/color-linkedin.svg

<svg fill="#666" height="50" viewBox="0 0 48 48" width="50" xmlns="http://www.w3.org/2000/svg"><path d="m42 37c0 2.761719-2.238281 5-5 5h-26c-2.761719 0-5-2.238281-5-5v-26c0-2.761719 2.238281-5 5-5h26c2.761719 0 5 2.238281 5 5z" fill="#0288d1"/><g fill="#fff"><path d="m12 19h5v17h-5z"/><path d="m14.484375 17h-.027344c-1.492187 0-2.457031-1.113281-2.457031-2.5 0-1.421875.996094-2.5 2.515625-2.5s2.457031 1.078125 2.484375 2.5c0 1.386719-.964844 2.5-2.515625 2.5z"/><path d="m36 36h-5v-9.097656c0-2.199219-1.226562-3.699219-3.191406-3.699219-1.5 0-2.3125 1.011719-2.707031 1.988281-.144532.351563-.101563 1.320313-.101563 1.808594v9h-5v-17h5v2.617188c.722656-1.117188 1.851563-2.617188 4.738281-2.617188 3.578125 0 6.261719 2.25 6.261719 7.273438z"/></g></svg>

<svg xmlns="http://www.w3.org/2000/svg" viewBox="0 0 48 48" width="50" height="50" fill="#666"><path d="M 42 37 C 42 39.761719 39.761719 42 37 42 L 11 42 C 8.238281 42 6 39.761719 6 37 L 6 11 C 6 8.238281 8.238281 6 11 6 L 37 6 C 39.761719 6 42 8.238281 42 11 Z" fill="#0288d1"/><path d="M 12 19 L 17 19 L 17 36 L 12 36 Z" fill="#fff"/><path d="M 14.484375 17 L 14.457031 17 C 12.964844 17 12 15.886719 12 14.5 C 12 13.078125 12.996094 12 14.515625 12 C 16.035156 12 16.972656 13.078125 17 14.5 C 17 15.886719 16.035156 17 14.484375 17 Z" fill="#fff"/><path d="M 36 36 L 31 36 L 31 26.902344 C 31 24.703125 29.773438 23.203125 27.808594 23.203125 C 26.308594 23.203125 25.496094 24.214844 25.101563 25.191406 C 24.957031 25.542969 25 26.511719 25 27 L 25 36 L 20 36 L 20 19 L 25 19 L 25 21.617188 C 25.722656 20.5 26.851563 19 29.738281 19 C 33.316406 19 36 21.25 36 26.273438 Z" fill="#fff"/></svg>
